X: 4119
T: Blow The Wind Southerly
R: waltz
M: 3/4
K: Dmajor
|:A2|f3 ed2|A2F2A2|B2G2B2|A2F2A2|
f3 ed2|A2F2A2|B2e2c2|d4:|
e2|f2a2a2|e2a2a2|d3 ed2|c2B2A2|
f2a2a2|e2a2a2|^g2f2^g2|a4a2|
b2=g2g2|a2f2f2|g3 ag2|f2e2d2|
f3 ed2|B2g2f2|e2d2c2|d4||

